X:1
T: Night Watch
N:
C:Karen Axelrod
S:
A:
O:
R:
M:3/4
K:C
I:speed 150
%W: A1
% voice 1 (1 lines, 23 notes)
K:C
M:3/4
L:1/16
B4 g6 f2 |e12 |d2 e2 d2 B2 A2 G2 |E4 A8 |B4 g6 f2 |e12 |d2 e2 d2 B2 A2 G2 |A12 |
%W: A2
% voice 1 (1 lines, 23 notes)
B4 g6 f2 |e12 |d2 e2 d2 B2 A2 G2 |E4 A8 |B4 g6 f2 |e12 |d2 e2 d2 B2 A2 G2 |A12 |
%W: B1
% voice 1 (1 lines, 27 notes)
A6 G2 E2 D2 |E4 G8 |A2 G2 A2 B2 c2 d2 |e12 |f2 d2 A2 a2 g2 f2 |e12 |d2 e2 d2 B2 A2 G2 |A12 |
%W: B2
% voice 1 (1 lines, 27 notes)
A6 G2 E2 D2 |E4 G8 |A2 G2 A2 B2 c2 d2 |e12 |f2 d2 A2 a2 g2 f2 |e12 |d2 e2 d2 B2 A2 G2 |A12 ||
